!!!COM: Bach, Johann Sebastian
!!!OTL: Was frag' ich nach der Welt
!!!ONM: No. 255
!!!OCL: Erk
!!!YOE: Riemenschneider, Albert
!!!OPR: 371 Harmonized Chorales and 69 Chorale Melodies with Figured Bass
!!!OPT: Bach Chorale Harmonizations
**kern	**kern	**kern	**kern
! bass	! tenor	! alto	! soprano
*M4/4	*M4/4	*M4/4	*M4/4
*D:	*D:	*D:	*D:
4C#	4A	4e	4a
=1	=1	=1	=1
8D	4A	4d	4f#
8C#	.	.	.
8D	4A	8f#	4d
8E	.	8e	.
8F#	4A	4d	4a
8E	.	.	.
8F#	4d	8a	4a
8D	.	8f#	.
=2	=2	=2	=2
2.G;	2.d;	2.g;	2.dd;
4GG	4G	4d	4b
=3	=3	=3	=3
8AA	4.G	8c#	4e
8GG	.	8d	.
8AA	.	8c#	4e
8BB	8F#	8B	.
8C#	4E	4A	4a
8BB	.	.	.
8C#	4A	4e	4g
8AA	.	.	.
=4	=4	=4	=4
4D	4A	4d	4f#
4D;	4F#;	4A;	4d;
4r	4r	4r	4r
4F#	4A	4d	4a
=5	=5	=5	=5
4G	8G	4d	4b
.	8A	.	.
4E	4B	4g	4b
4A	8c#	4f#	4a
.	8d	.	.
4AA	8d	4e	4g
.	8c#	.	.
=6	=6	=6	=6
2.D;	2.d;	2.A;	2.f#;
4AA	4c#	4c#	4e
=7	=7	=7	=7
8D	4A	4d	4f#
8C#	.	.	.
8D	4B	4e	4g#
8BB	.	.	.
8C#	4.A	4.e	4.a
8BB	.	.	.
8C#	.	.	.
8D	8d	8f#	8b
=8	=8	=8	=8
4E	2B	2e	2g#
4EE	.	.	.
4AA;	4c#;	4e;	4a;
4AA	4c#	4e	4a
=9	=9	=9	=9
8D	4d	8f#	4a
8C#	.	8e	.
8D	4d	8f#	4a
8E	.	8g	.
8F#	4d	8a	4dd
8E	.	8g	.
8F#	4d	8a	4ccn
8D	.	8f#	.
=10	=10	=10	=10
2.G;	2.d;	2.g;	2.b;
4D#	8B	4f#	4b
.	8A	.	.
=11	=11	=11	=11
8E	8G#	4e	4b
8D#	8F#	.	.
8E	8G#	4e	4b
8F#	8A	.	.
8G#	8B	4e	4ee
8F#	8A	.	.
8G#	8B	4e	4dd
8E	8G#	.	.
=12	=12	=12	=12
2.A;	2.A;	2.e;	2.cc#
4F#	4d	4d	4a
=13	=13	=13	=13
8Gn	4d	4g	4b
8A	.	.	.
8G	4d	4a	4a
8F#	.	.	.
8G	4d	4g	4b
8F#	.	.	.
8G	4e	8b	4cc#
8E	.	8a#	.
=14	=14	=14	=14
2.B;	2.f#;	2.b;	2.dd;
4C#	4e	8a	4a
.	.	8g	.
=15	=15	=15	=15
8D	4d	4f#	4a
8E	.	.	.
8F#	4A	8e	8g
8G	.	8d	8f#
4A	8A	4d	4e
.	8B	.	.
4AA	8A	4c#	4e
.	8G	.	.
=16	=16	=16	=16
2.D;	2.F#;	2.A;	2.d;
==	==	==	==
*-	*-	*-	*-
!!!CDT: 1685/3//-1750/7/28
!!!OCY: Deutschland
!!!AGN: chorale
!!!AST: Baroque
!!!AIN: vox
!!!YOY: 1941
!!!PPP: New York; London
!!!PPR: G. Schirmer
!!!ENC: David Huron
!!!EED: David Huron
!!!YEN: United States of America
!!!YER: 1992
!!!YEC: Copyright 1992 David Huron
!!!YEM: Rights to all derivative electronic formats reserved.
!!!YER: March 20, 1996
!!!AMT: simple quadruple
!!!EEV: 1.1
